source/assets/images/flags/Lesotho.svg

<svg viewBox="0 0 3750 2500" xmlns="http://www.w3.org/2000/svg" fill-rule="evenodd" clip-rule="evenodd" stroke-linejoin="round" stroke-miterlimit="1.414"><path fill="#0B9648" fill-rule="nonzero" d="M0 0h3750.003v2500.002H0z"/><path fill="#fff" fill-rule="nonzero" d="M0 0h3750.003v1750H0z"/><path fill="#283891" fill-rule="nonzero" d="M0 0h3750.003v750H0z"/><path d="M1842.5 1630.92l14.41 24.97 84.522-2.88-31.69-47.07-67.24 24.98zm-109.5-7.67l7.68 20.17 73 10.57-30.73-48.03-49.95 17.29zm287.172-25l-53.79 26.9 14.4 23.05 72.04-11.53-32.65-38.42zm-387.09 1l6.73 23.05 62.43 15.37-24.97-52.83-44.19 14.41zm487-24.08l-43.22 32.66 11.53 20.17 59.55-15.37-27.86-37.46zm-317-8.59l26.9 47.07 68.19-24.98-7.68-18.25-87.41-3.84zm128.75 1.92l23.06 39.38 53.78-25.93-14.4-21.13-62.44 7.68zm-345.83 7.67l-38.42 12.48 46.1 18.25-7.68-30.73zm116.25-25l22.09 52.83 47.07-18.25-15.37-23.06-53.79-11.52zm497.58-5.75l18.25 36.5-36.5 12.48-2.88-17.29 21.13-31.69zm-162.33 11.5l27.85 34.58 45.15-35.55-15.37-16.33-57.63 17.3zm-434.17-34.59l19.22 56.67 47.06-13.44-12.49-26.9-53.79-16.33zm-38.41-.91c-2.89 3.84-24.02 46.1-24.02 46.1l36.5-7.68-12.48-38.42zm614.75-14.42l10.56 15.37-29.78 44.18-30.73-39.38 49.95-20.17zm-207.51-304.12l204.12 269.97 33.66-14.63 69.72 142.08c-.63.44-1.25.89-1.88 1.32-2.32 1.61-4.69 3.14-7.08 4.64-3.27 2.05-6.58 4.04-9.91 5.98-8.36 4.86-16.88 9.42-25.51 13.76-11.31 5.68-22.82 10.97-34.46 15.93-12.89 5.49-25.94 10.56-39.13 15.26-19.39 6.9-39.06 12.99-58.94 18.33-21.66 5.81-43.57 10.73-65.62 14.8-35.54 6.56-71.48 10.92-107.54 13.28-11.16.73-22.34 1.26-33.51 1.61-8.38.26-16.75.42-25.13.47-1.38 0-2.76.01-4.14.01-2.28 0-4.57-.01-6.86-.03-4.53-.04-9.07-.12-13.6-.23-14.98-.38-29.94-1.17-44.88-2.38-41.36-3.33-82.47-9.8-122.88-19.25-29.72-6.95-59.07-15.51-87.86-25.67-8.25-2.92-16.46-5.96-24.61-9.14-4.14-1.62-8.26-3.26-12.36-4.95-11.33-4.65-22.55-9.55-33.63-14.76-8.53-4.01-16.98-8.2-25.32-12.6-3.46-1.83-6.91-3.7-10.32-5.62-2.6-1.47-5.19-2.95-7.74-4.5l-.27-.17-.36-.22-1.7-1.05 67.45-143.88 38.02 13.13 197.91-266.5c-.59-1.25-1.19-2.51-1.78-3.76-1.84-3.95-3.6-7.93-5.33-11.93-2.34-5.4-4.61-10.83-6.81-16.28-5.49-13.59-10.61-27.33-15.33-41.21-5.29-15.54-10.07-31.26-14.19-47.15-2.04-7.85-3.91-15.74-5.59-23.67-1.56-7.41-2.96-14.85-4.14-22.33-2.05-12.96-3.48-26.03-3.97-39.14-.31-8.273-.24-16.566.33-24.826.14-1.972.31-3.943.5-5.91.2-1.94.42-3.88.66-5.814.57-4.512 1.23-9.01 2.02-13.49.51-2.89 1.07-5.77 1.68-8.64 3.67-17.212 9.24-34.093 17.37-49.732 1.07-2.062 2.18-4.1 3.34-6.113 1.52-2.634 3.12-5.223 4.79-7.762 2.04-3.105 4.21-6.133 6.48-9.07 2.85-3.675 5.89-7.21 9.09-10.575 4.99-5.238 10.41-10.068 16.2-14.41 5.6-4.198 11.53-7.936 17.73-11.178 6.08-3.184 12.41-5.888 18.91-8.116 6.18-2.122 12.52-3.81 18.93-5.094 1.38-.275 2.75-.532 4.14-.77l-.07-9.185c.24-.265.47-.53.71-.794.94-1.028 1.93-2.02 2.94-2.98 1.07-1.01 2.16-1.99 3.29-2.934 2.76-2.317 5.7-4.438 8.84-6.213 2.03-1.15 4.16-2.153 6.36-2.923 1.84-.64 3.74-1.12 5.67-1.365.73-.093 1.47-.15 2.2-.174l2.31-.06v.128c.21.015.42.034.63.054.73.074 1.45.175 2.17.308 1.79.33 3.54.838 5.25 1.47 2.06.765 4.05 1.712 5.98 2.778.9.5 1.78 1.024 2.65 1.573 2.46 1.55 4.8 3.276 7.04 5.13.85.708 1.69 1.435 2.51 2.182.68.616 1.34 1.244 1.98 1.895l.64.657-.02 10.086c8.94 1.286 17.77 3.233 26.37 6.012 1.95.63 3.88 1.303 5.8 2.02 8.28 3.09 16.25 7.01 23.68 11.784 3.54 2.273 6.96 4.737 10.23 7.38 3.72 3.003 7.26 6.237 10.59 9.67 2.67 2.76 5.21 5.65 7.62 8.648 1.72 2.143 3.37 4.342 4.95 6.59 1.18 1.678 2.32 3.384 3.43 5.115 7.83 12.264 13.73 25.683 18.25 39.494.78 2.408 1.53 4.83 2.23 7.262.93 3.168 1.78 6.355 2.57 9.556 1 4.015 1.91 8.052 2.73 12.106.97 4.78 1.82 9.584 2.57 14.403.37 2.314.71 4.63 1.02 6.95.21 1.595.4 3.192.56 4.792.73 6.91 1.06 13.855 1.1 20.8.03 7.32-.26 14.64-.83 21.94-.54 6.99-1.32 13.97-2.3 20.91-1.19 8.46-2.68 16.88-4.4 25.25-1.57 7.67-3.34 15.3-5.27 22.89-2.32 9.14-4.88 18.21-7.63 27.23-2.8 9.14-5.79 18.22-8.96 27.23-2.71 7.7-5.55 15.35-8.5 22.95-3.68 9.46-7.55 18.85-11.61 28.16h.66l-6.61 13.21zm-180.2-14.07l41.53-55.94.36-93.91h-45.87l56.01-58.68-1.01-138.222c-8.15 1.62-16.16 3.995-23.82 7.213-4.56 1.916-9 4.127-13.27 6.63-4.16 2.435-8.15 5.146-11.95 8.112-6.17 4.82-11.8 10.31-16.83 16.308-1.77 2.112-3.47 4.286-5.08 6.515-1.29 1.763-2.52 3.56-3.71 5.39-1 1.538-1.97 3.098-2.9 4.676-7.11 12.008-12.32 25.076-16.08 38.495-2.46 8.77-4.3 17.71-5.65 26.716-.36 2.456-.7 4.915-.99 7.38-.24 1.938-.45 3.88-.63 5.825-.29 3.2-.49 6.41-.61 9.624-.31 8.226-.11 16.47.44 24.68.63 9.2 1.71 18.37 3.12 27.48 1.94 12.47 4.49 24.85 7.47 37.11 3.29 13.57 7.12 27.01 11.36 40.32 4.31 13.58 9.04 27.02 14.13 40.32 4.32 11.28 8.89 22.46 13.78 33.51l.2.45zm165.9-4.86c2.85-6.44 5.6-12.94 8.26-19.47 2.74-6.73 5.37-13.51 7.91-20.32 2.94-7.88 5.74-15.81 8.39-23.79 3.03-9.11 5.87-18.28 8.47-27.51 2.19-7.73 4.21-15.51 6.04-23.32 1.76-7.53 3.34-15.09 4.71-22.7 1.28-7.15 2.37-14.34 3.21-21.55.76-6.46 1.32-12.95 1.64-19.44.45-9.197.41-18.427-.35-27.605-.19-2.323-.42-4.642-.71-6.954-.2-1.603-.43-3.203-.67-4.802-.32-2.14-.65-4.276-1.01-6.41-1.3-7.685-2.87-15.327-4.81-22.877-.82-3.203-1.71-6.39-2.68-9.555-.75-2.46-1.54-4.905-2.38-7.333-.68-1.934-1.38-3.857-2.12-5.767-4.28-11.09-9.71-21.796-16.72-31.422-1-1.37-2.03-2.718-3.09-4.04-1.56-1.944-3.19-3.833-4.88-5.66-4.49-4.83-9.46-9.21-14.84-13.03-4.65-3.308-9.61-6.192-14.76-8.646-4.98-2.367-10.14-4.337-15.4-5.95-5.96-1.825-12.05-3.197-18.2-4.2l-.28 136.783 61.82 58.05h-46.27l.36 96.79 38.36 50.73z" fill="#030404"/></svg>

<?xml version="1.0" standalone="no"?>
<!DOCTYPE svg PUBLIC "-//W3C//DTD SVG 1.1//EN" "http://www.w3.org/Graphics/SVG/1.1/DTD/svg11.dtd">
<svg width="100%" height="100%" viewBox="0 0 3750 2500" version="1.1" xmlns="http://www.w3.org/2000/svg" xmlns:xlink="http://www.w3.org/1999/xlink" xml:space="preserve" style="fill-rule:evenodd;clip-rule:evenodd;stroke-linejoin:round;stroke-miterlimit:1.41421;">
    <g id="Layer 1" transform="matrix(4.16667,0,0,4.16667,0,0)">
        <rect x="0" y="0" width="900" height="600" style="fill:rgb(11,150,72);fill-rule:nonzero;"/>
        <rect x="0" y="0" width="900" height="420" style="fill:white;fill-rule:nonzero;"/>
        <rect x="0" y="0" width="900" height="180" style="fill:rgb(40,56,145);fill-rule:nonzero;"/>
        <g transform="matrix(0.24,0,0,0.24,0,0)">
            <path d="M1842.5,1630.92L1856.91,1655.89L1941.43,1653.01L1909.74,1605.94L1842.5,1630.92ZM1733,1623.25L1740.68,1643.42L1813.68,1653.99L1782.95,1605.96L1733,1623.25ZM2020.17,1598.25L1966.38,1625.15L1980.78,1648.2L2052.82,1636.67L2020.17,1598.25ZM1633.08,1599.25L1639.81,1622.3L1702.24,1637.67L1677.27,1584.84L1633.08,1599.25ZM2120.08,1575.17L2076.86,1607.83L2088.39,1628L2147.94,1612.63L2120.08,1575.17ZM1803.08,1566.58L1829.98,1613.65L1898.17,1588.67L1890.49,1570.42L1803.08,1566.58ZM1931.83,1568.5L1954.89,1607.88L2008.67,1581.95L1994.27,1560.82L1931.83,1568.5ZM1586,1576.17L1547.58,1588.65L1593.68,1606.9L1586,1576.17ZM1702.25,1551.17L1724.34,1604L1771.41,1585.75L1756.04,1562.69L1702.25,1551.17ZM2199.83,1545.42L2218.08,1581.92L2181.58,1594.4L2178.7,1577.11L2199.83,1545.42ZM2037.5,1556.92L2065.35,1591.5L2110.5,1555.95L2095.13,1539.62L2037.5,1556.92ZM1603.33,1522.33L1622.55,1579L1669.61,1565.56L1657.12,1538.66L1603.33,1522.33ZM1564.92,1521.42C1562.03,1525.26 1540.9,1567.52 1540.9,1567.52L1577.4,1559.84L1564.92,1521.42ZM2179.67,1507L2190.23,1522.37L2160.45,1566.55L2129.72,1527.17L2179.67,1507ZM1972.16,1202.88L2176.28,1472.85L2209.94,1458.22L2279.66,1600.3C2279.03,1600.74 2278.41,1601.19 2277.78,1601.62C2275.46,1603.23 2273.09,1604.76 2270.7,1606.26C2267.43,1608.31 2264.12,1610.3 2260.79,1612.24C2252.43,1617.1 2243.91,1621.66 2235.28,1626C2223.97,1631.68 2212.46,1636.97 2200.82,1641.93C2187.93,1647.42 2174.88,1652.49 2161.69,1657.19C2142.3,1664.09 2122.63,1670.18 2102.75,1675.52C2081.09,1681.33 2059.18,1686.25 2037.13,1690.32C2001.59,1696.88 1965.65,1701.24 1929.59,1703.6C1918.43,1704.33 1907.25,1704.86 1896.08,1705.21C1887.7,1705.47 1879.33,1705.63 1870.95,1705.68C1869.57,1705.68 1868.19,1705.69 1866.81,1705.69C1864.53,1705.69 1862.24,1705.68 1859.95,1705.66C1855.42,1705.62 1850.88,1705.54 1846.35,1705.43C1831.37,1705.05 1816.41,1704.26 1801.47,1703.05C1760.11,1699.72 1719,1693.25 1678.59,1683.8C1648.87,1676.85 1619.52,1668.29 1590.73,1658.13C1582.48,1655.21 1574.27,1652.17 1566.12,1648.99C1561.98,1647.37 1557.86,1645.73 1553.76,1644.04C1542.43,1639.39 1531.21,1634.49 1520.13,1629.28C1511.6,1625.27 1503.15,1621.08 1494.81,1616.68C1491.35,1614.85 1487.9,1612.98 1484.49,1611.06C1481.89,1609.59 1479.3,1608.11 1476.75,1606.56L1476.48,1606.39L1476.12,1606.17L1474.42,1605.12L1541.87,1461.24L1579.89,1474.37L1777.8,1207.87C1777.21,1206.62 1776.61,1205.36 1776.02,1204.11C1774.18,1200.16 1772.42,1196.18 1770.69,1192.18C1768.35,1186.78 1766.08,1181.35 1763.88,1175.9C1758.39,1162.31 1753.27,1148.57 1748.55,1134.69C1743.26,1119.15 1738.48,1103.43 1734.36,1087.54C1732.32,1079.69 1730.45,1071.8 1728.77,1063.87C1727.21,1056.46 1725.81,1049.02 1724.63,1041.54C1722.58,1028.58 1721.15,1015.51 1720.66,1002.4C1720.35,994.126 1720.42,985.833 1720.99,977.573C1721.13,975.601 1721.3,973.63 1721.49,971.663C1721.69,969.722 1721.91,967.784 1722.15,965.849C1722.72,961.337 1723.38,956.838 1724.17,952.36C1724.68,949.47 1725.24,946.589 1725.85,943.72C1729.52,926.507 1735.09,909.626 1743.22,893.987C1744.29,891.925 1745.4,889.887 1746.56,887.874C1748.08,885.24 1749.68,882.651 1751.35,880.112C1753.39,877.007 1755.56,873.979 1757.83,871.041C1760.68,867.367 1763.72,863.833 1766.92,860.467C1771.91,855.229 1777.33,850.399 1783.12,846.056C1788.72,841.859 1794.65,838.121 1800.85,834.879C1806.93,831.695 1813.26,828.991 1819.76,826.763C1825.94,824.641 1832.28,822.952 1838.69,821.669C1840.07,821.394 1841.44,821.137 1842.83,820.899L1842.76,811.714C1843,811.449 1843.23,811.183 1843.47,810.92C1844.41,809.891 1845.4,808.9 1846.41,807.939C1847.48,806.928 1848.57,805.949 1849.7,805.005C1852.46,802.688 1855.4,800.567 1858.54,798.792C1860.57,797.643 1862.7,796.639 1864.9,795.869C1866.74,795.228 1868.64,794.749 1870.57,794.504C1871.3,794.411 1872.04,794.355 1872.77,794.33L1875.08,794.27L1875.08,794.397C1875.29,794.412 1875.5,794.431 1875.71,794.451C1876.44,794.525 1877.16,794.626 1877.88,794.759C1879.67,795.09 1881.42,795.597 1883.13,796.229C1885.19,796.994 1887.18,797.941 1889.11,799.007C1890.01,799.506 1890.89,800.031 1891.76,800.58C1894.22,802.129 1896.56,803.855 1898.8,805.709C1899.65,806.417 1900.49,807.144 1901.31,807.891C1901.99,808.507 1902.65,809.135 1903.29,809.786L1903.93,810.443L1903.91,820.529C1912.85,821.815 1921.68,823.762 1930.28,826.541C1932.23,827.171 1934.16,827.844 1936.08,828.56C1944.36,831.65 1952.33,835.57 1959.76,840.345C1963.3,842.618 1966.72,845.082 1969.99,847.725C1973.71,850.728 1977.25,853.962 1980.58,857.396C1983.25,860.156 1985.79,863.045 1988.2,866.043C1989.92,868.186 1991.57,870.385 1993.15,872.632C1994.33,874.311 1995.47,876.017 1996.58,877.748C2004.41,890.013 2010.31,903.432 2014.83,917.243C2015.61,919.651 2016.36,922.072 2017.06,924.505C2017.99,927.673 2018.84,930.86 2019.63,934.061C2020.63,938.076 2021.54,942.113 2022.36,946.167C2023.33,950.948 2024.18,955.751 2024.93,960.57C2025.3,962.883 2025.64,965.199 2025.95,967.52C2026.16,969.114 2026.35,970.711 2026.51,972.311C2027.24,979.22 2027.57,986.166 2027.61,993.111C2027.64,1000.43 2027.35,1007.75 2026.78,1015.05C2026.24,1022.04 2025.46,1029.02 2024.48,1035.96C2023.29,1044.42 2021.8,1052.84 2020.08,1061.21C2018.51,1068.88 2016.74,1076.51 2014.81,1084.1C2012.49,1093.24 2009.93,1102.31 2007.18,1111.33C2004.38,1120.47 2001.39,1129.55 1998.22,1138.56C1995.51,1146.26 1992.67,1153.91 1989.72,1161.51C1986.04,1170.97 1982.17,1180.36 1978.11,1189.67L1978.77,1189.67L1972.16,1202.88ZM1791.96,1188.81L1833.49,1132.87L1833.85,1038.96L1787.98,1038.96L1843.99,980.28L1842.98,842.057C1834.83,843.676 1826.82,846.052 1819.16,849.27C1814.6,851.185 1810.16,853.396 1805.89,855.898C1801.73,858.334 1797.74,861.045 1793.94,864.011C1787.77,868.831 1782.14,874.32 1777.11,880.319C1775.34,882.431 1773.64,884.605 1772.03,886.834C1770.74,888.597 1769.51,890.395 1768.32,892.223C1767.32,893.762 1766.35,895.322 1765.42,896.9C1758.31,908.907 1753.1,921.975 1749.34,935.394C1746.88,944.165 1745.04,953.104 1743.69,962.11C1743.33,964.565 1742.99,967.024 1742.7,969.488C1742.46,971.427 1742.25,973.369 1742.07,975.314C1741.78,978.515 1741.58,981.725 1741.46,984.938C1741.15,993.165 1741.35,1001.41 1741.9,1009.62C1742.53,1018.82 1743.61,1027.99 1745.02,1037.1C1746.96,1049.57 1749.51,1061.95 1752.49,1074.21C1755.78,1087.78 1759.61,1101.22 1763.85,1114.53C1768.16,1128.11 1772.89,1141.55 1777.98,1154.85C1782.3,1166.13 1786.87,1177.31 1791.76,1188.36L1791.96,1188.81ZM1957.86,1183.95C1960.71,1177.51 1963.46,1171.01 1966.12,1164.48C1968.86,1157.75 1971.49,1150.97 1974.03,1144.16C1976.97,1136.28 1979.77,1128.35 1982.42,1120.37C1985.45,1111.26 1988.29,1102.09 1990.89,1092.86C1993.08,1085.13 1995.1,1077.35 1996.93,1069.54C1998.69,1062.01 2000.27,1054.45 2001.64,1046.84C2002.92,1039.69 2004.01,1032.5 2004.85,1025.29C2005.61,1018.83 2006.17,1012.34 2006.49,1005.85C2006.94,996.652 2006.9,987.422 2006.14,978.244C2005.95,975.921 2005.72,973.602 2005.43,971.29C2005.23,969.686 2005,968.086 2004.76,966.487C2004.44,964.347 2004.11,962.211 2003.75,960.077C2002.45,952.392 2000.88,944.75 1998.94,937.2C1998.12,933.996 1997.23,930.809 1996.26,927.644C1995.51,925.185 1994.72,922.739 1993.88,920.311C1993.2,918.377 1992.5,916.454 1991.76,914.544C1987.48,903.453 1982.05,892.748 1975.04,883.122C1974.04,881.752 1973.01,880.404 1971.95,879.081C1970.39,877.138 1968.76,875.249 1967.07,873.423C1962.58,868.592 1957.61,864.212 1952.23,860.393C1947.58,857.084 1942.62,854.2 1937.47,851.746C1932.49,849.379 1927.33,847.409 1922.07,845.796C1916.11,843.971 1910.02,842.599 1903.87,841.597L1903.59,978.379L1965.41,1036.43L1919.14,1036.43L1919.5,1133.22L1957.86,1183.95Z" style="fill:rgb(3,4,4);"/>
        </g>
    </g>
</svg>
